src/images/svg/trade-types/cfds-new.svg

<svg width="33" height="32" viewBox="0 0 33 32" fill="none" xmlns="http://www.w3.org/2000/svg">
<g clip-path="url(#clip0_9737_329290)">
<path d="M26.1133 0C29.427 0 32.1133 2.68627 32.1133 5.99999V26C32.1133 29.3137 29.427 32 26.1133 32H6.11327C2.79955 32 0.113281 29.3137 0.113281 26V5.99999C0.113281 2.68627 2.79955 0 6.11327 0H26.1133Z" fill="#33658A"/>
<path fill-rule="evenodd" clip-rule="evenodd" d="M27.1133 22.5C27.1133 20.0147 25.0986 18 22.6133 18C20.128 18 18.1133 20.0147 18.1133 22.5C18.1133 24.9853 20.128 27 22.6133 27C25.0986 27 27.1133 24.9853 27.1133 22.5ZM25.1133 22.5C25.1133 21.1193 23.994 20 22.6133 20C21.2326 20 20.1133 21.1193 20.1133 22.5C20.1133 23.8807 21.2326 25 22.6133 25C23.994 25 25.1133 23.8807 25.1133 22.5Z" fill="white"/>
<path fill-rule="evenodd" clip-rule="evenodd" d="M14.1133 9.5C14.1133 7.01472 12.0986 5 9.61328 5C7.128 5 5.11328 7.01472 5.11328 9.5C5.11328 11.9853 7.128 14 9.61328 14C12.0986 14 14.1133 11.9853 14.1133 9.5ZM12.1133 9.5C12.1133 8.11929 10.994 7 9.61328 7C8.23257 7 7.11328 8.11929 7.11328 9.5C7.11328 10.8807 8.23257 12 9.61328 12C10.994 12 12.1133 10.8807 12.1133 9.5Z" fill="white"/>
<path d="M24.4062 6.29289C24.7967 5.90237 25.4299 5.90237 25.8204 6.29289C26.1809 6.65338 26.2086 7.22061 25.9036 7.6129L25.8204 7.70711L7.82039 25.7071C7.42986 26.0976 6.7967 26.0976 6.40617 25.7071C6.04569 25.3466 6.01796 24.7794 6.32299 24.3871L6.40617 24.2929L24.4062 6.29289Z" fill="white"/>
</g>
<defs>
<clipPath id="clip0_9737_329290">
<rect width="32" height="32" fill="white" transform="translate(0.113281)"/>
</clipPath>
</defs>
</svg>

<svg width="33" height="32" fill="none" xmlns="http://www.w3.org/2000/svg"><g clip-path="url(#a)"><path d="M26.113 0a6 6 0 0 1 6 6v20a6 6 0 0 1-6 6h-20a6 6 0 0 1-6-6V6a6 6 0 0 1 6-6h20Z" fill="#33658A"/><path fill-rule="evenodd" clip-rule="evenodd" d="M27.113 22.5a4.5 4.5 0 1 0-9 0 4.5 4.5 0 0 0 9 0Zm-2 0a2.5 2.5 0 1 0-5 0 2.5 2.5 0 0 0 5 0ZM14.113 9.5a4.5 4.5 0 1 0-9 0 4.5 4.5 0 0 0 9 0Zm-2 0a2.5 2.5 0 1 0-5 0 2.5 2.5 0 0 0 5 0Z" fill="#fff"/><path d="M24.406 6.293a1 1 0 0 1 1.498 1.32l-.084.094-18 18a1 1 0 0 1-1.497-1.32l.083-.094 18-18Z" fill="#fff"/></g><defs><clipPath id="a"><path fill="#fff" transform="translate(.113)" d="M0 0h32v32H0z"/></clipPath></defs></svg>
